en/_assets/datasphere/dataset.svg

<svg width="24" height="24" viewBox="0 0 24 24" fill="none" xmlns="http://www.w3.org/2000/svg">
<path d="M8 16.5C7.80222 16.5 7.60888 16.5586 7.44443 16.6685C7.27998 16.7784 7.15181 16.9346 7.07612 17.1173C7.00043 17.3 6.98063 17.5011 7.01921 17.6951C7.0578 17.8891 7.15304 18.0673 7.29289 18.2071C7.43275 18.347 7.61093 18.4422 7.80491 18.4808C7.99889 18.5194 8.19996 18.4996 8.38268 18.4239C8.56541 18.3482 8.72159 18.22 8.83147 18.0556C8.94135 17.8911 9 17.6978 9 17.5C9 17.2348 8.89464 16.9804 8.70711 16.7929C8.51957 16.6054 8.26522 16.5 8 16.5ZM12 2C8 2 4 3.37 4 6V18C4 20.63 8 22 12 22C16 22 20 20.63 20 18V6C20 3.37 16 2 12 2ZM18 18C18 18.71 15.72 20 12 20C8.28 20 6 18.71 6 18V14.73C7.87207 15.62 9.92789 16.0551 12 16C14.0721 16.0551 16.1279 15.62 18 14.73V18ZM18 12C18 12.71 15.72 14 12 14C8.28 14 6 12.71 6 12C6 11.29 6 8.73 6 8.73C7.87207 9.61996 9.92789 10.0551 12 10C14.0721 10.0551 16.1279 9.61996 18 8.73V12ZM12 8C8.28 8 6 6.71 6 6C6 5.29 8.28 4 12 4C15.72 4 18 5.29 18 6C18 6.71 15.72 8 12 8ZM8 10.5C7.80222 10.5 7.60888 10.5586 7.44443 10.6685C7.27998 10.7784 7.15181 10.9346 7.07612 11.1173C7.00043 11.3 6.98063 11.5011 7.01921 11.6951C7.0578 11.8891 7.15304 12.0673 7.29289 12.2071C7.43275 12.347 7.61093 12.4422 7.80491 12.4808C7.99889 12.5194 8.19996 12.4996 8.38268 12.4239C8.56541 12.3482 8.72159 12.22 8.83147 12.0556C8.94135 11.8911 9 11.6978 9 11.5C9 11.2348 8.89464 10.9804 8.70711 10.7929C8.51957 10.6054 8.26522 10.5 8 10.5Z" fill="black" fill-opacity="0.7"/>
</svg>

<svg xmlns="http://www.w3.org/2000/svg" width="24" height="24" fill="none"><path fill="#000" fill-opacity=".7" d="M8 16.5a1 1 0 1 0 0 2 1 1 0 0 0 0-2ZM12 2C8 2 4 3.37 4 6v12c0 2.63 4 4 8 4s8-1.37 8-4V6c0-2.63-4-4-8-4Zm6 16c0 .71-2.28 2-6 2s-6-1.29-6-2v-3.27A13.16 13.16 0 0 0 12 16a13.16 13.16 0 0 0 6-1.27V18Zm0-6c0 .71-2.28 2-6 2s-6-1.29-6-2V8.73A13.16 13.16 0 0 0 12 10a13.16 13.16 0 0 0 6-1.27V12Zm-6-4C8.28 8 6 6.71 6 6s2.28-2 6-2 6 1.29 6 2-2.28 2-6 2Zm-4 2.5a1 1 0 1 0 0 2 1 1 0 0 0 0-2Z"/></svg>
